static/icons/facebook.svg

<?xml version="1.0" encoding="UTF-8" standalone="no"?>
<svg width="20px" height="20px" viewBox="0 0 20 20" version="1.1" xmlns="http://www.w3.org/2000/svg" xmlns:xlink="http://www.w3.org/1999/xlink">
    <!-- Generator: sketchtool 40.3 (33839) - http://www.bohemiancoding.com/sketch -->
    <title>D796186F-6625-4B24-9C85-B5577C3BDCE8</title>
    <desc>Created with sketchtool.</desc>
    <defs></defs>
    <g id="Symbols" stroke="none" stroke-width="1" fill="none" fill-rule="evenodd">
        <g id="Header---Mini" transform="translate(-1694.000000, -5.000000)">
            <g id="Facebook" transform="translate(1694.000000, 5.000000)">
                <path d="M10,20 C15.523,20 20,15.523 20,10 C20,4.477 15.523,0 10,0 C4.477,0 0,4.477 0,10 C0,15.523 4.477,20 10,20" id="Fill-1" fill="#FFFF00"></path>
                <path d="M10.9742,7.8098 L10.9742,6.7178 C10.9742,6.5528 10.9832,6.4238 11.0022,6.3308 C11.0202,6.2388 11.0572,6.1518 11.1122,6.0688 C11.1672,5.9858 11.2552,5.9258 11.3752,5.8888 C11.4942,5.8528 11.6562,5.8338 11.8582,5.8338 L12.9502,5.8338 L12.9502,3.6508 L11.1952,3.6508 C10.1822,3.6508 9.4542,3.8898 9.0122,4.3688 C8.5702,4.8478 8.3492,5.5578 8.3492,6.4968 L8.3492,7.8098 L7.0362,7.8098 L7.0362,9.9928 L8.3492,9.9928 L8.3492,16.3498 L10.9742,16.3498 L10.9742,9.9928 L12.7292,9.9928 L12.9642,7.8098 L10.9882,7.8098 L10.9742,7.8098 Z" id="Fill-3" fill="#221F20"></path>
            </g>
        </g>
    </g>
</svg>

<svg xmlns="http://www.w3.org/2000/svg" width="28" height="28" viewBox="0 0 28 28">
    <defs>
        <filter id="a" width="170%" height="170%" x="-35%" y="-25%" filterUnits="objectBoundingBox">
            <feOffset dy="2" in="SourceAlpha" result="shadowOffsetOuter1"/>
            <feGaussianBlur in="shadowOffsetOuter1" result="shadowBlurOuter1" stdDeviation="2"/>
            <feColorMatrix in="shadowBlurOuter1" result="shadowMatrixOuter1" values="0 0 0 0 0 0 0 0 0 0 0 0 0 0 0 0 0 0 0.5 0"/>
            <feMerge>
                <feMergeNode in="shadowMatrixOuter1"/>
                <feMergeNode in="SourceGraphic"/>
            </feMerge>
        </filter>
    </defs>
    <g fill="none" fill-rule="evenodd" filter="url(#a)" transform="translate(4 2)">
        <path fill="#BDEBE5" d="M10 20c5.523 0 10-4.477 10-10S15.523 0 10 0 0 4.477 0 10s4.477 10 10 10"/>
        <path fill="#231F20" d="M10.974 7.81V6.718c0-.165.01-.294.028-.387a.723.723 0 0 1 .11-.262.466.466 0 0 1 .263-.18c.12-.036.281-.055.483-.055h1.092V3.65h-1.755c-1.013 0-1.74.239-2.183.718-.442.479-.663 1.189-.663 2.128V7.81H7.036v2.183H8.35v6.357h2.625V9.993h1.755l.235-2.183h-1.99z"/>
    </g>
</svg>
